X: 127202
T: VOULEZ VOUS DANSER
P: Same figure.
%R: jig
B: James Kerr "Merry Melodies" v.1 p.27 s.2 #2
Z: 2017 John Chambers <jc:trillian.mit.edu>
N: The "Same figure" annotation is a mystery.
N: The 1st and 3rd strains are identical; the D.C. at the end of the 2nd strain may be spurious.
M: 6/8
L: 1/8
K: D
[|\
vf2vf uf2uf | ede d3 | c2d e2c | d2e f2d |\
f2f f2f | ede def | g2f e2d | c3 d3 H||\
ve2ve uc2uA | d2f e3 | e2e c2A | d2f e3 |\
a2a ^g2g | f2f e2e | d2d c2B | A3 (a2"_D.C."g) ||
f2f f2f | ede d3 | c2d e2c | d2e f2d |\
f2f f2f | ede def | g2f e2d | c3 d3 ||\
a2a a2a | gfg f3 | e2f g2e | f2g a2f |\
a2a a2a | gfg fga | b2a g2f | e3 a2"_D.C."g |]

%%sep 1 1 500
%%sep 1 1 500

